Adwaita++/status/16/network-wireless-signal-weak.svg

<svg height="16" width="16" xmlns="http://www.w3.org/2000/svg">
  <g fill="#474747">
    <path d="m10 13a2 2 0 0 1 -2 2 2 2 0 0 1 -2-2 2 2 0 0 1 2-2 2 2 0 0 1 2 2z"/>
    <path d="m8 2c-2.814 0-5.172 1-7 2.586v1.414h1.48c1.52-1.264 3.22-2 5.52-2s4 .78 5.52 2h1.48v-1.38c-1.64-1.467-4.186-2.62-7-2.62z" opacity=".35"/>
    <path d="m8 5c-2.167 0-4.02.739-5 2v1h2c.789-.606 1.759-1 3-1s2.22.394 3 1h2v-1c-.995-1.223-2.873-2-5-2z" opacity=".35"/>
    <path d="m8 8c-1.257 0-2.216.312-3 1v1h6v-1c-.837-.672-1.743-1-3-1z" opacity=".35"/>
  </g>
</svg>

<svg xmlns="http://www.w3.org/2000/svg" width="16" height="16">
    <g fill="#474747">
        <path d="M10 13a2 2 0 0 1-2 2 2 2 0 0 1-2-2 2 2 0 0 1 2-2 2 2 0 0 1 2 2z"/>
        <path d="M8 2C5.186 2 2.828 3 1 4.586V6h1.48C4 4.736 5.7 4 8 4c2.3 0 4 .78 5.52 2H15V4.62C13.36 3.153 10.814 2 8 2z" style="marker:none" color="#000" overflow="visible" opacity=".35"/>
        <path d="M8 5c-2.167 0-4.02.739-5 2v1h2c.789-.606 1.759-1 3-1s2.22.394 3 1h2V7c-.995-1.223-2.873-2-5-2z" style="marker:none" color="#000" overflow="visible" opacity=".35"/>
        <path d="M8 8c-1.257 0-2.216.312-3 1v1h6V9c-.837-.672-1.743-1-3-1z" style="line-height:normal;-inkscape-font-specification:Sans;text-indent:0;text-align:start;text-decoration-line:none;text-transform:none;marker:none" color="#000" font-weight="400" font-family="Sans" overflow="visible" opacity=".35"/>
    </g>
</svg>
